X:50
T: Gretlein
N: A0053A
O: Europa, Mitteleuropa, Deutschland
N: Melodie bei Forster III. 1549 No. 66.
R: Romanze, Ballade, Lied
M: 4/2
L: 1/4
K: F
c2 | c4c4B2A2 | F4G2F4
F2 | c4c4B2A2 | G3AB2A4
G2 | F2F2E2C2 | D4E2F4
A2 | G2G2F2E2 | D4C4z2
c2 | c2c2B2A2 | G4F6

